X:1
T: The Nightingale
C:
R:Jig
Q:180
K:G
M:6/8
L:1/16
|:G4D2 G4B2|d4g2 d4B2|c4A2 B4G2|A2F2D2 D6|
G4D2 G4B2|d4g2 d4B2|A2c2B2 c2A2F2|G6G6|
d4g2 d4B2|c4e2 c4A2|B4d2 B4G2|A2F2D2 D6|
d4g2 d4B2|c4e2 c4A2|A2c2B2 c2A2F2|G6G6:|
